X:1
T:Tell Me the Old, Old Story
T:Tell Me the Old, Old Story
T:William Howard Doane, 1867
T:Arabella Katherine Hankey, 1866
T:Public Domain Courtesy of the Cyber Hymnal™
T:Public Domain Courtesy of the Cyber Hymnal™
C:William Howard Doane, 1867
Z:Public Domain
Z:Courtesy of the Cyber Hymnal™
%%score ( 1 2 ) ( 3 4 )
L:1/8
Q:1/4=112
M:4/4
K:C
V:1 treble 
V:2 treble 
V:3 bass 
V:4 bass 
V:1
 [CE]2 [CE]>[DF] [EG]2 [EG]2 | [FA]4 [EG]2 [EG]2 | [Ec]2 [Ec]2 [Ec]2 (E>[^D^F]) | G6 [FG]2 | %4
w: 1.~Tell me the old, old|stor- y of|un- seen things a- *|bove, Of|
w: 2.~Tell me the stor- y|slow- ly, that|I may take it *|in, That|
w: 3.~Tell me the stor- y|soft- ly, with|ear- nest tones and *|grave; Re-|
w: 4.~Tell me the same old|stor- y when|you have cause to *|fear That|
 [Ec]2 [Ec]2 ([Ec][GB]) ([FA][EG]) | ([FA]2 [GB]2) !fermata![Ac]2 [FA]2 | %6
w: Je- sus and * His *|glor- * y, of|
w: won- der- ful * re- *|demp- * tion, God’s|
w: mem- ber I’m * the *|sin- * ner whom|
w: this world’s emp- * ty *|glor- * y is|
 [EG]2 ([DF][CE]) [B,D]2 ([EG][DF]) | [CE]8 | ([B,D]>[A,C]) [B,D]>[CE] [DF]2 [DF]2 | %9
w: Je- sus * and His *|love.|Tell * me the stor- y|
w: re- me- * dy for *|sin.|Tell * me the stor- y|
w: Je- sus * came to *|save.|Tell * me the stor- y|
w: cost- ing * me too *|dear.|Yes, * and when that world’s|
 ([CE]>[DF]) [EG]4 [EG]2 | (^FG) (AB) [Fc]2 [DF]2 | [DG]6 [FG]2 | %12
w: simp- * ly, as|to * a * lit- tle|child, For|
w: oft- * en, for|I * for- * get so|soon; The|
w: al- * ways, if|you * would * real- ly|be, In|
w: glor- * y is|dawn- * ing * on my|soul, Tell|
 [Ec]2 [Ec]2 ([Ec][GB]) ([FA][EG]) | ([FA]2 [GB]2) !fermata![Ac]2 [FA]2 | %14
w: I am weak * and *|wear- * y, and|
w: ear- ly dew * of *|morn- * ing has|
w: a- ny time * of *|trou- * ble, a|
w: me the old, * old *|stor- * y: “Christ|
 [EG]2 ([DF][CE]) [B,D]2 ([EG][DF]) | [CE]8 ||"^Refrain" [CE]2 [CE]>[DF] [EG]2 [EG]2 | %17
w: help- less * and de- *|filed.||
w: passed a- * way at *|noon.|Tell me the old, old|
w: com- fort- * er to *|me.||
w: Je- sus * makes thee *|whole.”||
 [FA]4 [EG]4 | [FB]2 [FB]>[Ec] [Fd]2 [Fd]2 | [Fd]4 [Ec]4 | [Ge]2 [Ge]>[Fd] [Ec]2 [Gc]2 | %21
w: ||||
w: stor- y,|tell me the old, old|stor- y,|Tell me the old, old|
w: ||||
w: ||||
 [Fc]4 [FA]2 [FA]2 | [EG]2 [Ec]2 ([DB][Ec]) [Fd]2 | [Ec]8 |] %24
w: |||
w: stor- y, of|Je- sus and * His|love.|
w: |||
w: |||
V:2
 x8 | x8 | x8 | (E4 D2) x2 | x8 | x8 | x8 | x8 | x8 | x8 | D2 D2 x4 | x8 | x8 | x8 | x8 | x8 || %16
 x8 | x8 | x8 | x8 | x8 | x8 | x8 | x8 |] %24
V:3
 [C,G,]2 [C,G,]>[C,G,] [C,C]2 [C,C]2 | [C,C]4 [C,C]2 [C,C]2 | A,2 A,2 A,2 [A,C]2 | (C4 B,2) G,2 | %4
 [C,G,]2 [C,G,]2 [C,G,]2 [C,C]2 | [F,C]4 !fermata![F,C]2 [F,C]2 | [G,C]2 G,2 [G,,G,]2 [G,,G,]2 | %7
 [C,G,]8 | [G,,G,]2 [G,,G,]>[G,,G,] [G,,G,]2 [G,,G,]2 | [C,G,]2 [C,C]4 [C,C]2 | %10
 (A,B,) (CB,) [D,A,]2 [D,C]2 | [G,,B,]6 G,2 | [C,G,]2 [C,G,]2 [C,G,]2 [C,C]2 | %13
 [F,C]4 !fermata![F,C]2 [F,C]2 | [G,C]2 G,2 [G,,G,]2 [G,,G,]2 | [C,G,]8 || %16
 [C,G,]2 [C,G,]>[C,G,] [C,C]2 [C,C]2 | [F,C]4 [C,C]4 | [G,D]2 [G,D]>[G,C] [G,B,]2 [G,B,]2 | %19
 [G,B,]4 [C,C]4 | [C,C]2 [C,C]>[C,G,] [C,G,]2 [C,_B,]2 | [F,A,]4 [F,C]2 [F,C]2 | %22
 [G,C]2 G,2 G,2 [G,,G,]2 | [C,G,]8 |] %24
V:4
 x8 | x8 | A,2 A,2 A,2 x2 | G,6 G,2 | x8 | x8 | x2 G,2 x4 | x8 | x8 | x8 | D,2 D,2 x4 | x6 G,2 | %12
 x8 | x8 | x8 | x8 || x8 | x8 | x8 | x8 | x8 | x8 | x2 G,2 G,2 x2 | x8 |] %24

